icons/op-not-supported-24.svg

<svg width="24" height="24" viewBox="0 0 24 24" fill="none" xmlns="http://www.w3.org/2000/svg">
<path d="M12 4C7.59055 4 4 7.59055 4 12C4 16.4094 7.59055 20 12 20C16.4094 20 20 16.4094 20 12C20 7.59055 16.4094 4 12 4ZM12 6.17323C13.1969 6.17323 14.3307 6.55118 15.2756 7.1811L7.1811 15.2756C6.55118 14.3307 6.17323 13.1969 6.17323 12C6.17323 8.7874 8.7874 6.17323 12 6.17323ZM12 17.8268C10.7717 17.8268 9.6378 17.4488 8.72441 16.7874L16.7874 8.69291C17.4488 9.6378 17.8268 10.7717 17.8268 12C17.8268 15.2126 15.2126 17.8268 12 17.8268Z" fill="black"/>
</svg>

<svg xmlns="http://www.w3.org/2000/svg" width="24" height="24" viewBox="0 0 24 24"><path d="M12 4c-4.409 0-8 3.591-8 8s3.591 8 8 8 8-3.591 8-8-3.591-8-8-8Zm0 2.173c1.197 0 2.331.378 3.276 1.008l-8.095 8.095A5.917 5.917 0 0 1 6.173 12 5.834 5.834 0 0 1 12 6.173Zm0 11.654a5.558 5.558 0 0 1-3.276-1.04l8.063-8.094A5.725 5.725 0 0 1 17.827 12 5.834 5.834 0 0 1 12 17.827Z"/></svg>
